X: 1532
T: O Tebessüm O Tavırlar
C: İsmail Baha Sürelsan
O: Turkey
F: http://compmusic.upf.edu/node/140
N: acemasiran--sarki--aksak--o_tebessum--ismail_baha_surelsan
N: makam= acemasiran
N: form= sarki
N: usul= aksak = 9/8
M: 9/8
L: 1/16
K: C _B   
Q: 1/4=240
%%MIDI tuningsystem comma53
z2f4c2 a2g2 f2a2 g2 | f4a2 a2c'2 z2c'2 b2a2  | \
w:   |   | 
g2z8-z2 a2f2 d2 | 
w:   | 
c2 z8-z2d2 B2A2  | d2z8-z2 c2e2 g2 | \
w:   |   | 
f12d2 c2B2  | d4 c2B2 A4 F2G2 A2 | 
w:   |   | 
G4E2 E2F4E2 F2G2  | z2f4c2 a2g2 f2a2 g2 | \
w:   |   | 
f4a2 a2c'2 z2c'2 b2a2  | 
w:   | 
g2z8-z2 a2f2 d2 | c2 z8-z2d2 B2A2  | \
w:   |   | 
d2z8-z2 c2e2 g2 | f12d2 c2B2  | 
w:   |   | 
d4 c2B2 A4 F2G2 A2 | G4E2 E2F4E2 F2G2  | \
w:   |   | 
z4 a2g2 f4 c6 | z4d2 c2B4A6  | 
w:  O  te bes süm   |  o  ta vır lar   | 
z4 G2G2 G4 c6 | d4e2 e2f8-f2  | z4 a2g2 f4 c6 | \
w:  o  le ven da  |  *  ne  hı ram    |  O  te bes süm   | 
z4d2 c2B4A6  | z4 G2G2 G4 c6 | 
w:  o  ta vır lar   |  o  le ven da  | 
d4e2 e2f8-f2  | a2f4g2 a4 f2e2 d2 | z2 c4 c2c4d2 c2B2  | \
w:  *  ne  hı ram    |  SAZ Bir  na zar la   |  et ti  za lim   | 
d4 c2B2 A4 F2G2 A2 | 
w:  *  ba na  dün ya  | 
G4E2 E2F4Ac defg  | a2f4g2 a4 f2e2 d2 | \
w:  *  yı  ha ram   SAZ  |  SAZ Bir  na zar la   | 
z2 c4 c2c4d2 c2B2  | 
w:  et ti  za lim   | 
d4 c2B2 A4 F2G2 A2 | G4E2 E2F4G2 F2B2  | \
w:  *  ba na  dün ya  |  *  yı  ha ram   SAZ  | 
A4 A2A2 c4 f6 | z4e2 f2g8-g2  | 
w:  *  O  ta vır lar   |  ne  i di   | 
z4 c'2c'2 c'4 a2b2 g2 | a3gf2 g2a8-a2  | \
w:  ne  i di  gü lüş  |  ler *  de  me ram    | 
z4 g2g2 g4 c'6 | z4g2 f2e8-e2  | 
w:  O  ta vır lar   |  ne  i di   | 
z4 f2f2 d2z2 d2e2 c2 | d4e2 e2f4e2 f2g2  | \
w:  ne  i di  gü lüş  |  ler de  me ram   SAZ  | 
a2f4g2 a4 f2e2 d2 | 
w:  SAZ Bir  na zar la   | 
z2 c4 c2c4d2 c2B2  | d4 c2B2 A4 F2G2 A2 | \
w:  et ti  za lim   |  *  ba na  dün ya  | 
G4E2 E2F4Ac defg  | 
w:  *  yı  ha ram   SAZ  | 
a2f4g2 a4 f2e2 d2 | z2 c4 c2c4d2 c2B2  | \
w:  SAZ Bir  na zar la   |  et ti  za lim   | 
d4 c2B2 A4 F2G2 A2 | 
w:  *  ba na  dün ya  | 
G4E2 E2F4|
w:  *  yı  ha ram    | 


